src/assets/duotone/BagTick2.svg

<svg width="24" height="24" viewBox="0 0 24 24"  xmlns="http://www.w3.org/2000/svg">
<path opacity="0.4" d="M16.1899 8.86039C15.7999 8.86039 15.4899 8.55039 15.4899 8.16039V6.88039C15.4899 5.90039 15.0699 4.96039 14.3499 4.30039C13.6099 3.63039 12.6599 3.32039 11.6599 3.41039C9.97986 3.57039 8.50986 5.28039 8.50986 7.06039V7.96039C8.50986 8.35039 8.19986 8.66039 7.80986 8.66039C7.41986 8.66039 7.10986 8.35039 7.10986 7.96039V7.06039C7.10986 4.56039 9.12986 2.25039 11.5199 2.02039C12.9099 1.89039 14.2499 2.33039 15.2799 3.27039C16.2999 4.19039 16.8799 5.51039 16.8799 6.88039V8.16039C16.8799 8.55039 16.5699 8.86039 16.1899 8.86039Z" />
<path d="M19.9602 8.96008C19.1202 8.03008 17.7402 7.58008 15.7202 7.58008H8.28023C6.26023 7.58008 4.88023 8.03008 4.04023 8.96008C3.07023 10.0401 3.10023 11.4801 3.21023 12.4801L3.91023 18.0501C4.12023 20.0001 4.91023 22.0001 9.21023 22.0001H14.7902C19.0902 22.0001 19.8802 20.0001 20.0902 18.0601L20.7902 12.4701C20.9002 11.4801 20.9302 10.0401 19.9602 8.96008ZM12.0002 18.5801C9.91023 18.5801 8.21023 16.8801 8.21023 14.7901C8.21023 12.7001 9.91023 11.0001 12.0002 11.0001C14.0902 11.0001 15.7902 12.7001 15.7902 14.7901C15.7902 16.8801 14.0902 18.5801 12.0002 18.5801Z" />
<path opacity="0.4" d="M12 18.58C14.0931 18.58 15.79 16.8832 15.79 14.79C15.79 12.6968 14.0931 11 12 11C9.9068 11 8.20996 12.6968 8.20996 14.79C8.20996 16.8832 9.9068 18.58 12 18.58Z" />
<path d="M11.4299 16.64C11.2399 16.64 11.0499 16.57 10.8999 16.42L9.90988 15.43C9.61988 15.14 9.61988 14.66 9.90988 14.37C10.1999 14.08 10.6799 14.08 10.9699 14.37L11.4499 14.85L13.0499 13.37C13.3499 13.09 13.8299 13.11 14.1099 13.41C14.3899 13.71 14.3699 14.19 14.0699 14.47L11.9399 16.44C11.7899 16.57 11.6099 16.64 11.4299 16.64Z" />
</svg>

<?xml version="1.0" encoding="UTF-8"?>
<svg width="24" height="24" viewBox="0 0 24 24" xmlns="http://www.w3.org/2000/svg">
 <path d="m16.19 8.8604c-0.39 0-0.7-0.31-0.7-0.7v-1.28c0-0.98-0.42-1.92-1.14-2.58-0.74-0.67-1.69-0.98-2.69-0.89-1.68 0.16-3.15 1.87-3.15 3.65v0.9c0 0.39-0.31 0.7-0.7 0.7s-0.7-0.31-0.7-0.7v-0.9c0-2.5 2.02-4.81 4.41-5.04 1.39-0.13 2.73 0.31 3.76 1.25 1.02 0.92 1.6 2.24 1.6 3.61v1.28c0 0.39-0.31 0.7-0.69 0.7z" opacity=".4"/>
 <path d="m19.96 8.9601c-0.84-0.93-2.22-1.38-4.24-1.38h-7.44c-2.02 0-3.4 0.45-4.24 1.38-0.97 1.08-0.94 2.52-0.83 3.52l0.7 5.57c0.21 1.95 1 3.95 5.3 3.95h5.58c4.3 0 5.09-2 5.3-3.94l0.7-5.59c0.11-0.99 0.14-2.43-0.83-3.51zm-7.96 9.62c-2.09 0-3.79-1.7-3.79-3.79s1.7-3.79 3.79-3.79c2.09 0 3.79 1.7 3.79 3.79s-1.7 3.79-3.79 3.79z"/>
 <path d="m12 18.58c2.0931 0 3.79-1.6968 3.79-3.79s-1.6969-3.79-3.79-3.79c-2.0932 0-3.79 1.6968-3.79 3.79s1.6968 3.79 3.79 3.79z" opacity=".4"/>
 <path d="m11.43 16.64c-0.19 0-0.38-0.07-0.53-0.22l-0.99002-0.99c-0.29-0.29-0.29-0.77 0-1.06 0.29002-0.29 0.77002-0.29 1.06 0l0.48 0.48 1.6-1.48c0.3-0.28 0.78-0.26 1.06 0.04s0.26 0.78-0.04 1.06l-2.13 1.97c-0.15 0.13-0.33 0.2-0.51 0.2z"/>
</svg>
